X: 3351
T: HOUGH GREEN
R: Hornpipe.
%R: hornpipe, reel
B: James Kerr "Merry Melodies" v.3 p.38 #351
Z: 2016 John Chambers <jc:trillian.mit.edu>
M: C
L: 1/8
K: A
(cd) |\
eaga faga | ecAA Acde |\
fedc dcBA | G2B2 B2(cd) |\
eaga faga | ecAA Acde |\
fedc dcBA | E2A2 A2 :|
|: e2 |\
(ae)ce (fe)ce | (ae)ce (fe)eg |\
fedc dcBA | GABc defg |\
(ae)ce (fe)ce | (ae)ce (fe)ce |\
fedc dcBA | E2A2 A2 :|

%%sep 1 1 500
%%sep 1 1 500

